svg/archive.svg

<?xml version="1.0" encoding="UTF-8"?>
<svg xmlns="http://www.w3.org/2000/svg" xmlns:xlink="http://www.w3.org/1999/xlink" width="32" height="32" viewBox="0 0 32 32">
<path fill-rule="nonzero" fill="rgb(0%, 0%, 0%)" fill-opacity="1" d="M 4.5 4 C 3.835938 4 3.199219 4.261719 2.730469 4.730469 C 2.261719 5.199219 2 5.835938 2 6.5 L 2 7.5 C 2 8.882812 3.117188 10 4.5 10 L 27.5 10 C 28.878906 10 30 8.878906 30 7.5 L 30 6.5 C 30 5.117188 28.882812 4 27.5 4 Z M 4.117188 12 L 4.835938 24.234375 C 4.960938 26.347656 6.710938 28 8.828125 28 L 23.167969 28 C 25.289062 28 27.039062 26.351562 27.164062 24.234375 L 27.882812 12 Z M 12.292969 15.792969 C 12.683594 15.402344 13.316406 15.402344 13.707031 15.792969 L 16 18.085938 L 18.292969 15.792969 C 18.542969 15.523438 18.917969 15.414062 19.273438 15.503906 C 19.625 15.59375 19.902344 15.871094 19.992188 16.226562 C 20.085938 16.582031 19.976562 16.957031 19.707031 17.207031 L 17.414062 19.5 L 19.707031 21.792969 C 19.976562 22.042969 20.085938 22.417969 19.996094 22.773438 C 19.90625 23.125 19.628906 23.402344 19.273438 23.492188 C 18.917969 23.585938 18.542969 23.476562 18.292969 23.207031 L 16 20.914062 L 13.707031 23.207031 C 13.457031 23.476562 13.082031 23.585938 12.726562 23.496094 C 12.375 23.40625 12.097656 23.128906 12.007812 22.773438 C 11.914062 22.417969 12.023438 22.042969 12.292969 21.792969 L 14.585938 19.5 L 12.292969 17.207031 C 11.902344 16.816406 11.902344 16.183594 12.292969 15.792969 "/>
</svg>

<svg role="img" viewBox="0 0 32 32" height="32" width="32" xmlns="http://www.w3.org/2000/svg"><path d="M4.5 4a2.5 2.5 0 0 0-1.77.73A2.5 2.5 0 0 0 2 6.5v1C2 8.883 3.117 10 4.5 10h23c1.379 0 2.5-1.121 2.5-2.5v-1C30 5.117 28.883 4 27.5 4Zm-.383 8 .719 12.234A4.001 4.001 0 0 0 8.828 28h14.34a4 4 0 0 0 3.996-3.766L27.883 12Zm8.176 3.793a1 1 0 0 1 1.414 0L16 18.086l2.293-2.293a.999.999 0 0 1 1.7.434.99.99 0 0 1-.286.98L17.414 19.5l2.293 2.293a.999.999 0 0 1-.434 1.7.99.99 0 0 1-.98-.286L16 20.914l-2.293 2.293a.999.999 0 0 1-1.7-.434.99.99 0 0 1 .286-.98l2.293-2.293-2.293-2.293a1 1 0 0 1 0-1.414"/></svg>
